X: 111
T: Miss Murray's Reel
R: minuet, triple hornpipe
B: Robert Bremner "A Collection of Scots Reels or Country Dances" p.11 #1
S: http://imslp.org/wiki/A_Collection_of_Scots_Reels_or_Country_Dances_(Bremner,_Robert)
Z: 2013 John Chambers <jc:trillian.mit.edu>
M: 3/2
L: 1/4
K: Am
% - - - - - - - - - - - - - - - - - - - - - - - - -
V: 1
|:\
eA- Ac TB2 | eA- Ac B/c/d/B/ |\
eA- Ac TB2 | dG- Gc B/c/d/B/ :|\
|:\
cc ec gc | ec bc d/f/g/e/ |\
cc ag Te2 | dG- Gc B/c/d/B/ :|
% - - - - - - - - - - - - - - - - - - - - - - - - -
V: 2 clef=bass middle=d
|:\
a2 a2 a2 | a2 a2 a2 |\
a2 a2 a2 | g2 g2 g2 :|\
|:\
c2 c2 c2 | c2 c2 c2 |\
c2 c2 c2 | g2 g2 g2 :|
% - - - - - - - - - - - - - - - - - - - - - - - - -

%%sep 1 1 500
%%sep 1 1 500
